assets/flags-color/Vc.svg

<svg xmlns="http://www.w3.org/2000/svg" viewBox="0 0 512 512"><path fill="#ffe15a" d="M114.76 0h282.48v512H114.76z"/><path fill="#73af00" d="M397.24 0H512v512H397.24z"/><path fill="#4173cd" d="M0 0h114.76v512H0z"/><g fill="#73af00"><path d="M184.195 247.348l32.071 64.141 32.07-64.141-32.07-64.141zM263.664 247.348l32.07 64.141 32.071-64.141-32.071-64.141zM223.929 324.459L256 388.6l32.071-64.141L256 260.318z"/></g></svg>

<svg xmlns="http://www.w3.org/2000/svg" x="0" y="0" enable-background="new 0 0 512 512" version="1.1" viewBox="0 0 512 512" xml:space="preserve"><path fill="#FFE15A" d="M114.76 0H397.24V512H114.76z"/><path fill="#73AF00" d="M397.24 0H512V512H397.24z"/><path fill="#4173CD" d="M0 0H114.76V512H0z"/><g fill="#73AF00"><path d="M184.195 247.348 216.266 311.489 248.336 247.348 216.266 183.207z"/><path d="M263.664 247.348 295.734 311.489 327.805 247.348 295.734 183.207z"/><path d="M223.929 324.459 256 388.6 288.071 324.459 256 260.318z"/></g></svg>
